X: 3434
M: 3/4
L: 1/8
K: D
|:\
f2e2d2 | cBe4 | e2d2B2 | ^GAd4 |\
(fd)(dA)(AF) | (Ge)e4 | e2B2c2 | e2d4 :|


